assets/breakfast.svg

<?xml version="1.0" encoding="UTF-8"?>
<svg width="18px" height="18px" viewBox="0 0 18 18" version="1.1" xmlns="http://www.w3.org/2000/svg" xmlns:xlink="http://www.w3.org/1999/xlink">
    <!-- Generator: Sketch 47.1 (45422) - http://www.bohemiancoding.com/sketch -->
    <title>Mask</title>
    <desc>Created with Sketch.</desc>
    <defs>
        <path d="M16,0 L0,0 L0,10 C0,12.21 1.79,14 4,14 L10,14 C12.21,14 14,12.21 14,10 L14,7 L16,7 C17.11,7 18,6.1 18,5 L18,2 C18,0.89 17.11,0 16,0 Z M16,5 L14,5 L14,2 L16,2 L16,5 Z M0,16 L16,16 L16,18 L0,18 L0,16 Z" id="path-1"></path>
    </defs>
    <g id="Icons" stroke="none" stroke-width="1" fill="none" fill-rule="evenodd">
        <g id="amenitiy-/-breakfast" transform="translate(-4.000000, -3.000000)">
            <g id="breakfast">
                <g id="Icon-🎨" transform="translate(4.000000, 3.000000)">
                    <mask id="mask-2" fill="white">
                        <use xlink:href="#path-1"></use>
                    </mask>
                    <use id="Mask" fill="#001833" fill-rule="nonzero" xlink:href="#path-1"></use>
                </g>
            </g>
        </g>
    </g>
</svg>

<?xml version="1.0" encoding="utf-8"?>
<!-- Generator: Adobe Illustrator 21.1.0, SVG Export Plug-In . SVG Version: 6.00 Build 0)  -->
<svg version="1.1" id="Layer_1" xmlns="http://www.w3.org/2000/svg" xmlns:xlink="http://www.w3.org/1999/xlink" x="0px" y="0px"
	 viewBox="0 0 18 18" style="enable-background:new 0 0 18 18;" xml:space="preserve">
<style type="text/css">
	.st0{fill:#001833;}
</style>
<path id="path-1_1_" class="st0" d="M16,0H0v10c0,2.2,1.8,4,4,4h6c2.2,0,4-1.8,4-4V7h2c1.1,0,2-0.9,2-2V2C18,0.9,17.1,0,16,0z M16,5
	h-2V2h2V5z M0,16h16v2H0V16z"/>
</svg>
